;FLAVOR:Marlin
;TIME:6569
;Filament used: 5.97319m
;Layer height: 0.2
;MINX:39.75
;MINY:77.5
;MINZ:0.2
;MAXX:190.25
;MAXY:152.5
;MAXZ:5.2
;POSTPROCESSED
;Generated with Cura_SteamEngine 4.13.1
M140 S60
M105
M190 S60
M104 S200
M105
M109 S200
M82 ;absolute extrusion mode
; Ender 3 Custom Start G-code
G92 E0 ; Reset Extruder
G28 ; Home all axes
G1 Z2.0 F3000 ; Move Z Axis up little to prevent scratching of Heat Bed
G1 X0.1 Y20 Z0.3 F5000.0 ; Move to start position
G1 X0.1 Y200.0 Z0.3 F1500.0 E15 ; Draw the first line
G1 X0.4 Y200.0 Z0.3 F5000.0 ; Move to side a little
G1 X0.4 Y20 Z0.3 F1500.0 E30 ; Draw the second line
G92 E0 ; Reset Extruder
G1 Z2.0 F3000 ; Move Z Axis up little to prevent scratching of Heat Bed
G1 X5 Y20 Z0.3 F5000.0 ; Move over to prevent blob squish
G92 E0
G92 E0
G1 F1500 E-6.5
;LAYER_COUNT:25
;LAYER:0
M117 Layer 0 of 24 CE3PRO_Bottom
M107
G1 F300 Z0.4
G0 F6000 X47.794 Y82.137 Z0.4
;TYPE:SKIRT
G1 F300 Z0.2
G1 F1500 E0
G1 F1200 X48.648 Y81.68 E0.03222
G1 X48.923 Y81.548 E0.04236
G1 X49.375 Y81.344 E0.05885
G1 X49.671 Y81.218 E0.06955
G1 X50.384 Y80.943 E0.09497
G1 X50.624 Y80.86 E0.10342
G1 X51.053 Y80.721 E0.11842
G1 X51.246 Y80.663 E0.12512
G1 X51.615 Y80.559 E0.13787
G1 X52.066 Y80.445 E0.15334
G1 X52.961 Y80.24 E0.18388
G1 X55.476 Y79.625 E0.27
G1 X57.873 Y78.966 E0.35268
G1 X60.534 Y78.151 E0.44524
G1 X60.876 Y78.041 E0.45719
G1 X61.78 Y77.791 E0.48839
G1 X62.702 Y77.62 E0.51958
G1 X63.917 Y77.515 E0.56014
G1 X64.246 Y77.505 E0.57108
G1 X64.58 Y77.5 E0.58219
G1 X89.543 Y77.5 E1.41247
G1 X90.401 Y77.511 E1.44101
G1 X91.337 Y77.564 E1.47219
G1 X92.547 Y77.754 E1.51293
G1 X93.654 Y77.991 E1.55058
G1 X96.201 Y78.501 E1.63697
G1 X98.725 Y78.932 E1.72214
G1 X101.187 Y79.283 E1.80485
G1 X103.666 Y79.563 E1.88783
G1 X106.2 Y79.778 E1.97241
G1 X108.673 Y79.917 E2.0548
G1 X112.596 Y80 E2.1853
G1 X170.246 Y80.002 E4.10275
G1 X171.121 Y80.015 E4.13186
G1 X171.717 Y80.04 E4.1517
G1 X172.006 Y80.06 E4.16133
G1 X172.528 Y80.109 E4.17877
G1 X172.69 Y80.128 E4.1842
G1 X173.07 Y80.179 E4.19695
G1 X173.273 Y80.21 E4.20378
G1 X173.712 Y80.286 E4.2186
G1 X173.928 Y80.328 E4.22591
G1 X174.483 Y80.451 E4.24482
G1 X174.672 Y80.498 E4.2513
G1 X175.27 Y80.665 E4.27195
G1 X175.48 Y80.73 E4.27926
G1 X175.79 Y80.831 E4.29011
G1 X176.085 Y80.932 E4.30048
G1 X176.826 Y81.216 E4.32687
G1 X177.24 Y81.392 E4.34183
G1 X177.737 Y81.618 E4.35999
G1 X177.871 Y81.683 E4.36495
G1 X178.453 Y81.987 E4.38678
G1 X178.633 Y82.088 E4.39365
G1 X179.116 Y82.375 E4.41234
G1 X179.373 Y82.537 E4.42244
G1 X179.749 Y82.785 E4.43742
G1 X179.987 Y82.949 E4.44703
G1 X180.56 Y83.372 E4.47072
G1 X180.745 Y83.518 E4.47856
G1 X181.174 Y83.875 E4.49712
G1 X181.39 Y84.064 E4.50667
G1 X181.829 Y84.47 E4.52656
G1 X181.954 Y84.592 E4.53237
G1 X182.342 Y84.99 E4.55086
G1 X182.53 Y85.193 E4.56006
G1 X182.996 Y85.73 E4.58371
G1 X183.256 Y86.05 E4.59742
G1 X183.729 Y86.677 E4.62354
G1 X183.965 Y87.014 E4.63723
G1 X184.384 Y87.659 E4.66281
G1 X184.904 Y88.525 E4.6964
G1 X186.264 Y90.713 E4.78209
G1 X187.653 Y92.812 E4.86581
G1 X187.781 Y92.997 E4.87329
G1 X188.358 Y93.852 E4.90759
G1 X188.849 Y94.651 E4.93879
G1 X189.27 Y95.489 E4.96998
G1 X189.618 Y96.36 E5.00117
G1 X189.891 Y97.257 E5.03236
G1 X190.087 Y98.174 E5.06355
G1 X190.203 Y99.105 E5.09475
G1 X190.235 Y99.667 E5.11348
G1 X190.245 Y99.992 E5.12429
G1 X190.25 Y100.33 E5.13553
G1 X190.249 Y131.949 E6.18719
G1 X190.239 Y132.654 E6.21064
G1 X190.186 Y133.59 E6.24182
G1 X190.053 Y134.519 E6.27303
G1 X189.841 Y135.433 E6.30424
G1 X189.553 Y136.325 E6.33541
G1 X189.189 Y137.189 E6.3666
G1 X188.754 Y138.02 E6.39779
G1 X188.351 Y138.661 E6.42298
G1 X186.897 Y140.811 E6.5093
G1 X185.512 Y142.99 E6.59518
G1 X184.53 Y144.616 E6.65836
G1 X184.228 Y145.098 E6.67728
G1 X183.947 Y145.525 E6.69428
G1 X183.782 Y145.763 E6.70391
G1 X183.357 Y146.336 E6.72764
G1 X183.199 Y146.535 E6.73609
G1 X182.87 Y146.93 E6.75319
G1 X182.691 Y147.135 E6.76224
G1 X182.245 Y147.616 E6.78406
G1 X182.121 Y147.742 E6.78993
G1 X181.747 Y148.104 E6.80725
G1 X181.549 Y148.287 E6.81621
G1 X181.02 Y148.746 E6.83951
G1 X180.7 Y149.006 E6.85322
G1 X180.075 Y149.478 E6.87927
G1 X179.741 Y149.712 E6.89284
G1 X179.043 Y150.163 E6.92048
G1 X178.706 Y150.363 E6.93351
G1 X177.85 Y150.821 E6.9658
G1 X177.579 Y150.951 E6.9758
G1 X177.138 Y151.151 E6.9919
G1 X176.838 Y151.279 E7.00275
G1 X176.116 Y151.557 E7.02848
G1 X175.876 Y151.64 E7.03693
G1 X175.447 Y151.779 E7.05193
G1 X175.254 Y151.837 E7.05863
G1 X174.833 Y151.955 E7.07317
G1 X174.439 Y152.053 E7.08668
G1 X174.221 Y152.103 E7.09412
G1 X173.837 Y152.184 E7.10717
G1 X173.66 Y152.218 E7.11316
G1 X172.949 Y152.33 E7.1371
G1 X172.525 Y152.383 E7.15131
G1 X171.853 Y152.446 E7.17376
G1 X171.615 Y152.461 E7.1817
G1 X171.111 Y152.481 E7.19847
G1 X169.987 Y152.499 E7.23586
G1 X56.714 Y152.5 E11.00334
G1 X56.482 Y152.498 E11.01105
G1 X55.061 Y152.468 E11.05833
G1 X54.067 Y152.401 E11.09146
G1 X53.96 Y152.389 E11.09504
G1 X53.331 Y152.3 E11.11617
G1 X52.957 Y152.236 E11.12879
G1 X52.496 Y152.147 E11.14441
G1 X52.171 Y152.077 E11.15547
G1 X51.422 Y151.888 E11.18116
G1 X51.26 Y151.841 E11.18677
G1 X50.949 Y151.746 E11.19758
G1 X50.673 Y151.657 E11.20723
G1 X49.964 Y151.401 E11.2323
G1 X49.694 Y151.293 E11.24197
G1 X49.315 Y151.133 E11.25566
G1 X49.029 Y151.006 E11.26606
G1 X48.27 Y150.634 E11.29418
G1 X48.042 Y150.511 E11.30279
G1 X47.555 Y150.232 E11.32146
G1 X47.336 Y150.099 E11.32998
G1 X46.831 Y149.773 E11.34998
G1 X46.666 Y149.66 E11.35663
G1 X45.971 Y149.143 E11.38544
G1 X45.509 Y148.77 E11.40519
G1 X44.631 Y147.979 E11.44449
G1 X44.252 Y147.599 E11.46234
G1 X43.508 Y146.774 E11.49929
G1 X43.246 Y146.452 E11.5131
G1 X42.77 Y145.823 E11.53933
G1 X42.538 Y145.492 E11.55278
G1 X42.086 Y144.792 E11.58049
G1 X41.886 Y144.455 E11.59353
G1 X41.421 Y143.583 E11.6264
G1 X41.292 Y143.313 E11.63635
G1 X41.099 Y142.888 E11.65187
G1 X40.971 Y142.588 E11.66272
G1 X40.687 Y141.848 E11.68908
G1 X40.6 Y141.595 E11.69798
G1 X40.432 Y141.064 E11.71651
G1 X40.349 Y140.776 E11.72648
G1 X40.197 Y140.189 E11.74664
G1 X40.147 Y139.971 E11.75408
G1 X40.066 Y139.587 E11.76713
G1 X40.032 Y139.41 E11.77313
G1 X39.92 Y138.699 E11.79707
G1 X39.867 Y138.275 E11.81128
G1 X39.804 Y137.6 E11.83383
G1 X39.789 Y137.361 E11.84179
G1 X39.769 Y136.86 E11.85847
G1 X39.751 Y135.738 E11.89579
G1 X39.75 Y96.963 E13.18546
G1 X39.752 Y96.731 E13.19317
G1 X39.782 Y95.311 E13.24041
G1 X39.849 Y94.317 E13.27355
G1 X39.861 Y94.21 E13.27713
G1 X39.95 Y93.581 E13.29826
G1 X40.014 Y93.207 E13.31088
G1 X40.103 Y92.746 E13.32649
G1 X40.173 Y92.421 E13.33755
G1 X40.359 Y91.681 E13.36293
G1 X40.407 Y91.515 E13.36868
G1 X40.525 Y91.134 E13.38194
G1 X40.625 Y90.83 E13.39259
G1 X40.873 Y90.152 E13.4166
G1 X40.969 Y89.914 E13.42513
G1 X41.114 Y89.571 E13.43752
G1 X41.239 Y89.289 E13.44778
G1 X41.603 Y88.544 E13.47536
G1 X41.727 Y88.313 E13.48408
G1 X42.024 Y87.794 E13.50397
G1 X42.158 Y87.574 E13.51253
G1 X42.477 Y87.081 E13.53206
G1 X42.59 Y86.916 E13.53872
G1 X43.107 Y86.221 E13.56753
G1 X43.48 Y85.759 E13.58727
G1 X44.271 Y84.881 E13.62658
G1 X44.651 Y84.502 E13.64443
G1 X45.472 Y83.761 E13.68122
G1 X45.79 Y83.502 E13.69486
G1 X46.425 Y83.022 E13.72133
G1 X46.759 Y82.788 E13.7349
G1 X47.457 Y82.337 E13.76254
G1 X47.794 Y82.137 E13.77557
G0 F6000 X47.998 Y82.481
G1 F1200 X48.821 Y82.041 E13.80661
G1 X49.096 Y81.909 E13.81675
G1 X49.531 Y81.712 E13.83264
G1 X49.827 Y81.586 E13.84334
G1 X50.514 Y81.321 E13.86783
G1 X50.754 Y81.238 E13.87627
G1 X51.168 Y81.104 E13.89075
G1 X51.361 Y81.046 E13.89745
G1 X51.721 Y80.945 E13.90989
G1 X52.156 Y80.835 E13.92481
G1 X53.066 Y80.626 E13.95586
G1 X55.571 Y80.013 E14.04164
G1 X57.99 Y79.349 E14.12507
G1 X60.585 Y78.554 E14.21534
G1 X60.999 Y78.421 E14.2298
G1 X61.886 Y78.177 E14.2604
G1 X62.792 Y78.011 E14.29104
G1 X63.929 Y77.915 E14.32899
G1 X64.258 Y77.905 E14.33994
G1 X64.58 Y77.9 E14.35065
G1 X89.543 Y77.9 E15.18092
G1 X90.395 Y77.911 E15.20926
G1 X91.314 Y77.964 E15.23988
G1 X92.463 Y78.145 E15.27856
G1 X93.569 Y78.382 E15.31618
G1 X96.154 Y78.899 E15.40386
G1 X98.643 Y79.325 E15.48785
G1 X101.118 Y79.677 E15.571
G1 X103.658 Y79.964 E15.65602
G1 X106.177 Y80.178 E15.7401
G1 X108.643 Y80.317 E15.82225
G1 X112.587 Y80.4 E15.95346
G1 X170.24 Y80.402 E17.87101
G1 X171.115 Y80.415 E17.90011
G1 X171.69 Y80.439 E17.91925
G1 X171.979 Y80.459 E17.92889
G1 X172.482 Y80.506 E17.94569
G1 X172.644 Y80.525 E17.95112
G1 X173.009 Y80.574 E17.96336
G1 X173.212 Y80.605 E17.97019
G1 X173.635 Y80.679 E17.98448
G1 X173.851 Y80.721 E17.9918
G1 X174.386 Y80.839 E18.01002
G1 X174.575 Y80.886 E18.0165
G1 X175.151 Y81.047 E18.03639
G1 X175.361 Y81.112 E18.0437
G1 X175.66 Y81.209 E18.05415
G1 X175.955 Y81.31 E18.06452
G1 X176.669 Y81.584 E18.08996
G1 X177.083 Y81.76 E18.10492
G1 X177.562 Y81.978 E18.12243
G1 X177.696 Y82.043 E18.12738
G1 X178.257 Y82.336 E18.14843
G1 X178.437 Y82.437 E18.1553
G1 X178.902 Y82.714 E18.1733
G1 X179.159 Y82.876 E18.1834
G1 X179.522 Y83.115 E18.19786
G1 X179.76 Y83.279 E18.20747
G1 X180.312 Y83.686 E18.23028
G1 X180.497 Y83.832 E18.23812
G1 X180.91 Y84.176 E18.256
G1 X181.126 Y84.365 E18.26554
G1 X181.55 Y84.756 E18.28473
G1 X181.675 Y84.878 E18.29054
G1 X182.048 Y85.262 E18.30834
G1 X182.236 Y85.465 E18.31754
G1 X182.686 Y85.983 E18.34037
G1 X182.946 Y86.303 E18.35408
G1 X183.402 Y86.907 E18.37925
G1 X183.638 Y87.244 E18.39294
G1 X184.041 Y87.865 E18.41756
G1 X184.535 Y88.688 E18.44948
G1 X185.94 Y90.948 E18.53799
G1 X187.326 Y93.042 E18.62151
G1 X187.449 Y93.22 E18.62871
G1 X188.026 Y94.075 E18.66302
G1 X188.508 Y94.86 E18.69366
G1 X188.919 Y95.684 E18.72428
G1 X189.258 Y96.54 E18.7549
G1 X189.521 Y97.422 E18.78552
G1 X189.706 Y98.324 E18.81614
G1 X189.835 Y99.679 E18.86141
G1 X189.845 Y100.004 E18.87223
G1 X189.85 Y100.33 E18.88307
G1 X189.849 Y131.943 E19.93452
G1 X189.839 Y132.648 E19.95797
G1 X189.786 Y133.567 E19.98859
G1 X189.653 Y134.479 E20.01925
G1 X189.442 Y135.375 E20.04986
G1 X189.154 Y136.249 E20.08047
G1 X188.791 Y137.095 E20.11109
G1 X188.356 Y137.907 E20.14173
G1 X188.02 Y138.437 E20.1626
G1 X186.555 Y140.603 E20.24957
G1 X185.178 Y142.769 E20.33494
G1 X184.421 Y144.023 E20.38366
G1 X184.339 Y144.162 E20.38902
G1 X184.191 Y144.404 E20.39846
G1 X183.889 Y144.886 E20.41738
G1 X183.618 Y145.297 E20.43375
G1 X183.453 Y145.535 E20.44338
G1 X183.044 Y146.087 E20.46623
G1 X182.886 Y146.286 E20.47468
G1 X182.569 Y146.667 E20.49117
G1 X182.39 Y146.872 E20.50022
G1 X181.96 Y147.335 E20.52124
G1 X181.836 Y147.461 E20.52712
G1 X181.476 Y147.81 E20.54379
G1 X181.278 Y147.993 E20.55276
G1 X180.767 Y148.436 E20.57525
G1 X180.447 Y148.696 E20.58897
G1 X179.845 Y149.15 E20.61405
G1 X179.511 Y149.384 E20.62761
G1 X178.839 Y149.819 E20.65424
G1 X178.502 Y150.019 E20.66727
G1 X177.677 Y150.46 E20.69838
G1 X177.406 Y150.59 E20.70838
G1 X176.981 Y150.783 E20.7239
G1 X176.681 Y150.911 E20.73475
G1 X175.986 Y151.179 E20.75953
G1 X175.746 Y151.262 E20.76797
G1 X175.332 Y151.396 E20.78245
G1 X175.139 Y151.454 E20.78915
G1 X174.729 Y151.568 E20.8033
G1 X174.35 Y151.663 E20.8163
G1 X174.132 Y151.713 E20.82374
G1 X173.762 Y151.791 E20.83632
G1 X173.585 Y151.825 E20.84231
G1 X172.9 Y151.933 E20.86537
G1 X172.476 Y151.986 E20.87959
G1 X171.828 Y152.047 E20.90123
G1 X171.59 Y152.062 E20.90917
G1 X171.104 Y152.081 E20.92534
G1 X169.987 Y152.099 E20.9625
G1 X56.714 Y152.1 E24.72997
G1 X56.49 Y152.098 E24.73743
G1 X55.069 Y152.068 E24.7847
G1 X54.112 Y152.004 E24.8166
G1 X54.005 Y151.992 E24.82018
G1 X53.398 Y151.906 E24.84057
G1 X53.024 Y151.842 E24.85319
G1 X52.58 Y151.756 E24.86823
G1 X52.255 Y151.686 E24.87929
G1 X51.533 Y151.504 E24.90406
G1 X51.371 Y151.457 E24.90967
G1 X51.072 Y151.365 E24.92007
G1 X50.796 Y151.276 E24.92972
G1 X50.112 Y151.03 E24.95389
G1 X49.842 Y150.922 E24.96356
G1 X49.477 Y150.768 E24.97674
G1 X49.191 Y150.641 E24.98715
G1 X48.46 Y150.282 E25.01424
G1 X48.232 Y150.159 E25.02285
G1 X47.763 Y149.89 E25.04083
G1 X47.544 Y149.757 E25.04936
G1 X47.057 Y149.443 E25.06863
G1 X46.892 Y149.33 E25.07528
G1 X46.222 Y148.832 E25.10305
G1 X45.76 Y148.459 E25.1228
G1 X44.914 Y147.696 E25.16069
G1 X44.535 Y147.316 E25.17854
G1 X43.818 Y146.521 E25.21415
G1 X43.556 Y146.199 E25.22795
G1 X43.098 Y145.593 E25.25322
G1 X42.866 Y145.262 E25.26666
G1 X42.43 Y144.588 E25.29336
G1 X42.23 Y144.251 E25.30639
G1 X41.782 Y143.411 E25.33806
G1 X41.653 Y143.141 E25.34801
G1 X41.467 Y142.731 E25.36298
G1 X41.339 Y142.431 E25.37383
G1 X41.065 Y141.718 E25.39924
G1 X40.978 Y141.465 E25.40814
G1 X40.817 Y140.953 E25.42599
G1 X40.734 Y140.665 E25.43596
G1 X40.587 Y140.1 E25.45537
G1 X40.537 Y139.882 E25.46281
G1 X40.459 Y139.512 E25.47539
G1 X40.425 Y139.335 E25.48138
G1 X40.317 Y138.65 E25.50445
G1 X40.264 Y138.226 E25.51866
G1 X40.203 Y137.575 E25.54041
G1 X40.188 Y137.336 E25.54837
G1 X40.169 Y136.854 E25.56442
G1 X40.151 Y135.738 E25.60154
G1 X40.15 Y96.963 E26.8912
G1 X40.152 Y96.739 E26.89865
G1 X40.182 Y95.319 E26.94589
G1 X40.246 Y94.362 E26.97779
G1 X40.258 Y94.255 E26.98137
G1 X40.344 Y93.648 E27.00177
G1 X40.408 Y93.274 E27.01439
G1 X40.494 Y92.83 E27.02943
G1 X40.564 Y92.505 E27.04048
G1 X40.743 Y91.793 E27.0649
G1 X40.791 Y91.627 E27.07065
G1 X40.905 Y91.259 E27.08346
G1 X41.005 Y90.955 E27.09411
G1 X41.244 Y90.302 E27.11724
G1 X41.34 Y90.064 E27.12577
G1 X41.479 Y89.733 E27.13771
G1 X41.604 Y89.451 E27.14797
G1 X41.956 Y88.734 E27.17454
G1 X42.08 Y88.503 E27.18326
G1 X42.366 Y88.002 E27.20244
G1 X42.5 Y87.782 E27.21101
G1 X42.807 Y87.307 E27.22982
G1 X42.92 Y87.142 E27.23648
G1 X43.418 Y86.472 E27.26424
G1 X43.791 Y86.01 E27.28399
G1 X44.554 Y85.164 E27.32188
G1 X44.934 Y84.785 E27.33973
G1 X45.725 Y84.071 E27.37517
G1 X46.043 Y83.812 E27.38881
G1 X46.655 Y83.35 E27.41432
G1 X46.989 Y83.116 E27.42788
G1 X47.661 Y82.681 E27.45451
G1 X47.998 Y82.481 E27.46754
G0 F6000 X48.202 Y82.825
G1 F1200 X48.994 Y82.401 E27.49742
G1 X49.269 Y82.269 E27.50757
G1 X49.688 Y82.08 E27.52285
G1 X49.984 Y81.954 E27.53355
G1 X50.645 Y81.699 E27.55712
G1 X50.885 Y81.616 E27.56556
G1 X51.283 Y81.488 E27.57947
G1 X51.713 Y81.361 E27.59438
G1 X51.826 Y81.33 E27.59828
G1 X52.245 Y81.225 E27.61265
G1 X53.12 Y81.024 E27.64251
G1 X55.667 Y80.401 E27.72972
G1 X58.108 Y79.731 E27.81391
G1 X60.74 Y78.925 E27.90546
G1 X61.121 Y78.802 E27.91878
G1 X61.992 Y78.563 E27.94882
G1 X62.881 Y78.402 E27.97887
G1 X63.941 Y78.315 E28.01424
G1 X64.27 Y78.305 E28.02519
G1 X64.58 Y78.3 E28.0355
G1 X89.543 Y78.3 E28.86578
G1 X90.389 Y78.311 E28.89392
G1 X91.291 Y78.364 E28.92397
G1 X92.379 Y78.536 E28.9606
G1 X93.471 Y78.77 E28.99775
G1 X96.081 Y79.292 E29.08628
G1 X98.592 Y79.722 E29.17101
G1 X101.088 Y80.076 E29.25486
G1 X103.616 Y80.362 E29.33948
G1 X106.121 Y80.575 E29.42309
G1 X108.639 Y80.717 E29.50697
G1 X112.579 Y80.8 E29.63805
G1 X170.235 Y80.802 E31.55569
G1 X171.11 Y80.815 E31.5848
G1 X171.662 Y80.838 E31.60318
G1 X171.951 Y80.858 E31.61281
G1 X172.435 Y80.903 E31.62898
G1 X172.597 Y80.922 E31.6344
G1 X172.949 Y80.97 E31.64622
G1 X173.152 Y81.001 E31.65305
G1 X173.559 Y81.072 E31.66679
G1 X173.775 Y81.114 E31.67411
G1 X174.29 Y81.227 E31.69165
G1 X174.479 Y81.274 E31.69812
G1 X175.033 Y81.429 E31.71726
G1 X175.243 Y81.494 E31.72457
G1 X175.531 Y81.588 E31.73465
G1 X175.826 Y81.689 E31.74502
G1 X176.513 Y81.952 E31.76948
G1 X176.927 Y82.128 E31.78445
G1 X177.388 Y82.338 E31.80129
G1 X177.522 Y82.403 E31.80625
G1 X178.061 Y82.685 E31.82648
G1 X178.241 Y82.786 E31.83335
G1 X178.689 Y83.052 E31.85067
G1 X178.946 Y83.214 E31.86078
G1 X179.295 Y83.444 E31.87468
G1 X179.533 Y83.608 E31.88429
G1 X180.064 Y84 E31.90625
